src/android-happy.svg

<?xml version="1.0" encoding="utf-8"?>
<!-- Generated by IcoMoon.io -->
<!DOCTYPE svg PUBLIC "-//W3C//DTD SVG 1.1//EN" "http://www.w3.org/Graphics/SVG/1.1/DTD/svg11.dtd">
<svg version="1.1" xmlns="http://www.w3.org/2000/svg" xmlns:xlink="http://www.w3.org/1999/xlink" width="512" height="512" viewBox="0 0 512 512">
<path fill="#000000" d="M256 48c-115.437 0-208 93.6-208 208s92.563 208 208 208 208-93.6 208-208c0-114.4-93.599-208-208-208zM256 422.4c-91.518 0-166.404-74.883-166.404-166.4s74.887-166.4 166.404-166.4 166.404 74.882 166.404 166.4c0 91.518-74.886 166.4-166.404 166.4zM328.8 235.2c17.683 0 31.201-13.518 31.201-31.2s-13.519-31.2-31.201-31.2c-17.682 0-31.2 13.518-31.2 31.2s13.518 31.2 31.2 31.2zM183.2 235.2c17.682 0 31.2-13.518 31.2-31.2s-13.519-31.2-31.2-31.2c-17.683 0-31.201 13.518-31.201 31.2s13.519 31.2 31.201 31.2zM256 370.4c48.883 0 89.436-30.164 106.081-72.801h-212.162c16.645 42.637 57.198 72.801 106.081 72.801z"></path>
</svg>

<?xml version="1.0" encoding="utf-8"?>
<!-- Generator: Adobe Illustrator 16.2.1, SVG Export Plug-In . SVG Version: 6.00 Build 0)  -->
<!DOCTYPE svg PUBLIC "-//W3C//DTD SVG 1.1//EN" "http://www.w3.org/Graphics/SVG/1.1/DTD/svg11.dtd">
<svg version="1.1" id="Layer_1" xmlns="http://www.w3.org/2000/svg" xmlns:xlink="http://www.w3.org/1999/xlink" x="0px" y="0px"
	 width="512px" height="512px" viewBox="0 0 512 512" enable-background="new 0 0 512 512" xml:space="preserve">
<path d="M256,48C140.563,48,48,141.6,48,256c0,114.4,92.563,208,208,208s208-93.6,208-208C464,141.6,370.401,48,256,48z M256,422.4
	c-91.518,0-166.404-74.883-166.404-166.4c0-91.518,74.887-166.4,166.404-166.4S422.404,164.482,422.404,256
	C422.404,347.518,347.518,422.4,256,422.4z M328.8,235.2c17.683,0,31.201-13.518,31.201-31.2s-13.519-31.2-31.201-31.2
	c-17.682,0-31.2,13.518-31.2,31.2S311.118,235.2,328.8,235.2z M183.2,235.2c17.682,0,31.2-13.518,31.2-31.2s-13.519-31.2-31.2-31.2
	c-17.683,0-31.201,13.518-31.201,31.2S165.518,235.2,183.2,235.2z M256,370.4c48.883,0,89.436-30.164,106.081-72.801H149.919
	C166.564,340.236,207.117,370.4,256,370.4z"/>
</svg>
